X:547
T: Das Wirtshaus am Rhein (247), S. 527f
N: T0435
O: Luxemburg
S: Singendes Volk, Esch-Alzette, 1937 posth.]
N: Rammeldingen, J.P. Gloden, 19.2.1934
R: Berufslied]
M: 3/4
L: 1/16
K: D
F2D2E2 | F4F2D2F2E2 | D4z2
A2A2d2 | c4A4B2^G2 | A4z2
A2d2A2 | A2A2d2B2B2
B2 | B2B2ddB2A2A2 | F2
A2A2A2AAA2 | G4A4 | F4z2

